X: 15
T:Pat the Budgie
M:C|
L:1/8
S:4 Men & a Dog
R:reel
K:C
C3 E G3E|FEFA d3  c|BG (3GGG ^FGAB|cBcd ecAG|CB,CE G3  E|FEFA dAcA|BG (3
GGG ^FGAB|1cBcd c3  E :|2ccBd c3   g||
|:f2 fe fagf |efed c2 Ac|BGGA BcdB|cBcd eceg|f2 fe fagf|ecB c2 Ac|BGGA B
cdB|1ccBd c2  eg :|2ccBd c2 ef|
|:gceg acfa|gage cgec|BGGA BcdB|cBcd ece^f|gceg acfa|gage cgec|BGGA BcdB
|1ccBd c2 ce :|2ccBd cAGE||
